X:423
T:Major Malley's Reel
T:Major Molle
C:Andrew Gow
D:Battlefield Band, Home Is Where the Van Is
Z:Nigel Gatherer
M:4/4
L:1/8
K:B dorian
d>c | B>ff>e    d>cB>A | B>ff>e    d2 c2  | B>ff>g    a>ga>f | e>cA>c e2 :|
d>c | B>F B/B/B d>Bc>A | B>F B/B/B d2 c>d | B>F B/B/B d>Bc>d | e>cA>c e2 
d>c | B>F B/B/B d>Bc>A | B>F B/B/B d2 c>d | B>ff>g    a>ga>f | e>cA>c e2 |]
<end>
<start>
